view-agenda.svg

<svg fill="currentColor" viewBox="0 0 24 24"><path d="M21 3H3c-.6 0-1 .4-1 1v6c0 .6.4 1 1 1h18c.6 0 1-.4 1-1V4c0-.6-.4-1-1-1m0 10H3c-.6 0-1 .4-1 1v6c0 .6.4 1 1 1h18c.6 0 1-.4 1-1v-6c0-.6-.4-1-1-1"/></svg>

<svg  viewBox="0 0 24 24" fill="currentColor"><path  d="M21 3H3C2.4 3 2 3.4 2 4V10C2 10.6 2.4 11 3 11H21C21.6 11 22 10.6 22 10V4C22 3.4 21.6 3 21 3M21 13H3C2.4 13 2 13.4 2 14V20C2 20.6 2.4 21 3 21H21C21.6 21 22 20.6 22 20V14C22 13.4 21.6 13 21 13Z"/></svg>
